X:1
T: The Danish Hornpipe
C:
R:Reel
Q: 232
K:C
M:4/4
L:1/8
|:G2|c2 c2 EG ce|ge ag fe dc|dc de ge dc|Bc dc BG AB|
c2 c2 EG ce|ge ag fe dc|d^c de gf de|c2 e2 c2:|
|:GG|G2 BB B2 dd|d2 gg g2 gg|g2 g2 d2 B2|G2 G2 A2 B2|
c2 c2 EG ce|ge ag fe dc|dc de fd Bd|c2 e2 c2:|
